X: 9158
T: Dálaigh's
R: polka
M: 2/4
K: Adorian
|:A>B cd|ea ge|d>e dB|GB dB|
A>B cd|ea ge|dB gB|BA A2:|
|:ea ag/a/|ba ge|ea ag/a/|ba g2|
ea ag/a/|ba ge|d/e/d/B/ gB|BA A2:|

